X: 1
T: Anna Thug Mi Gradh Dhuit
R: reel
M: 4/4
L: 1/8
K: Amaj
K:A
c|A2ED CEAB|cdBc AFFG|A/A/A AE CEAe|cAec B2A:|
B|ce e2 cff2|eccB AFFA|cee2 cefg|agfe f2 g|
agfe fgaf|ecdB cAFA|GAEA CEA,e|cAec B2A||
